X: 1
T: Maddy Donovan's
M: 4/4
L: 1/8
R: reel
K: Dmaj
D3D DEFA|BdAd B2AF|~E3F GFED|G2FD EDEF|
AD~D2 DEFA|BdAd  B2AF|DEFB B2AF|1 GFEF DEDB,:|2 GFEF D3A||
|:BABc dcBc|AE~E2 ABcA|df~f2 af~f2|bfaf gfed|
~B3c dcBc|AE~E2 ABcA|dfec dBAd|1 B2AF DEFA:|2 B2AF DEDB,||
